X: 023
T: le petit djeuner
M: 3/4
L: 1/8
R: wals
K: Amin
|:e4 B2|A2 FA Bc|B2 GB cd|e2 Be Be|e4 B2|A2 FA Bc|B2 GB cd|B6:|
|:c2 Ac Ac|f2 cf cf|B2 GB GB|e2 Be Be|
|A2 FA FA|d2 Ad Ad|1 B2 eB eB|d2 c2 B2:|2 B3 d cB|A6||
